Dominus_Dark_Funeral/scalable/apps/doublecmd.svg

<?xml version="1.0" encoding="UTF-8" standalone="no"?><svg xmlns:dc="http://purl.org/dc/elements/1.1/" xmlns:cc="http://creativecommons.org/ns#" xmlns:rdf="http://www.w3.org/1999/02/22-rdf-syntax-ns#" xmlns="http://www.w3.org/2000/svg" xmlns:xlink="http://www.w3.org/1999/xlink" width="48" height="48" viewBox="0 0 12.7 12.7"><metadata><rdf:RDF><cc:Work><dc:format>image/svg+xml</dc:format><dc:type rdf:resource="http://purl.org/dc/dcmitype/StillImage"/><dc:title/></cc:Work></rdf:RDF></metadata><defs><linearGradient id="d"><stop offset="0" stop-color="#ff7f2a"/><stop offset=".24" stop-color="#ffb380"/><stop offset=".5" stop-color="#c87137"/><stop offset=".75" stop-color="#e9c6af"/><stop offset="1" stop-color="#f95"/></linearGradient><linearGradient id="c"><stop offset="0"/><stop offset="1" stop-opacity="0"/></linearGradient><linearGradient id="a"><stop offset="0"/><stop offset="1" stop-opacity="0"/></linearGradient><linearGradient id="b"><stop offset="0" stop-color="#515151"/><stop offset=".2" stop-color="#2b2b2b"/><stop offset=".53" stop-color="#1b1b1b"/><stop offset="1"/></linearGradient><linearGradient xlink:href="#d" id="f" x1="6.28" y1="-.3" x2="10.25" y2="11" gradientUnits="userSpaceOnUse"/><radialGradient xlink:href="#e" id="g" cx="30.84" cy="30.27" fx="30.84" fy="30.27" r="20.2" gradientTransform="matrix(.42514 -.01963 .02224 .48152 -5.62 -5.68)" gradientUnits="userSpaceOnUse"/><linearGradient id="e"><stop offset="0" stop-color="#ffb380"/><stop stop-color="#ff7f2a" offset=".59"/><stop offset="1" stop-color="#ffb380"/></linearGradient></defs><path d="M6.35.1C4.81.1 3.57.39 2.66.97A3.67 3.67 0 0 0 1 4.22c0 1.91 1.54 4.47 2.01 5.2.54.85 1.13 1.61 1.65 2.16.68.7 1.21 1.03 1.69 1.03s1.01-.33 1.69-1.03a15.2 15.2 0 0 0 1.65-2.15c.47-.74 2-3.3 2-5.21 0-1.42-.57-2.54-1.65-3.25A6.75 6.75 0 0 0 6.35.09z" fill="url(#f)"/><path d="M6.35.1C4.81.1 3.57.38 2.66.96a3.67 3.67 0 0 0-1.65 3.25c0 1.91 1.53 4.47 2 5.2a14.41 14.41 0 0 0 1.65 2.16c.68.7 1.21 1.03 1.69 1.03s1.01-.33 1.69-1.03c.52-.55 1.11-1.31 1.65-2.16.47-.73 2-3.29 2-5.2 0-1.42-.57-2.54-1.65-3.25A6.76 6.76 0 0 0 6.35.1z" fill="url(#g)"/><path d="M11.1 2.08l-.47.01c-2.3.06-4.16 1.78-4.16 3.97A3.96 3.96 0 0 0 9.4 9.8c.1-.14.2-.23.29-.38.08-.12.26-.5.39-.71C8.93 8.4 7.7 7.39 7.7 6.06c0-1.56 1.28-2.77 2.92-2.77h.9l.06-.03V3.2a3.72 3.72 0 0 0-.32-.88c-.04-.1-.11-.16-.16-.25zM1.6 2.1c-.05.08-.12.15-.16.24-.14.27-.25.56-.32.88v.04c.02.01.03.04.07.04h.9C3.7 3.29 5 4.49 5 6.06 5 7.4 3.78 8.44 2.64 8.74l.37.68a14.41 14.41 0 0 0 .28.4 3.97 3.97 0 0 0 2.94-3.76c0-2.19-1.86-3.97-4.16-3.97H1.6z" fill="#1a1a1a"/><path d="M10.98 1.82h-.5A4.03 4.03 0 0 0 6.47 5.8c0 1.87 1.3 3.42 3.06 3.84l.16-.2c.1-.16.38-.6.55-.9-1.18-.17-2.58-1.3-2.58-2.74a2.76 2.76 0 0 1 2.82-2.78h.86c.08 0 .15-.06.2-.1-.07-.2-.18-.4-.27-.58-.1-.19-.16-.36-.29-.52zm-9.23 0a3.67 3.67 0 0 0-.48.83l-.1.27c.05.05.09.1.2.1h.86c1.58 0 2.82 1.21 2.82 2.78 0 1.45-1.4 2.61-2.58 2.78.16.29.44.7.54.85l.16.21A3.97 3.97 0 0 0 6.24 5.8a4 4 0 0 0-4.01-3.97z" fill="#ccc"/><path d="M6.35.1C4.81.1 3.57.39 2.66.97A3.67 3.67 0 0 0 1 4.22c0 1.91 1.54 4.47 2.01 5.2.54.85 1.13 1.61 1.65 2.16.68.7 1.21 1.03 1.69 1.03s1.01-.33 1.69-1.03a15.2 15.2 0 0 0 1.65-2.15c.47-.74 2-3.3 2-5.21 0-1.42-.57-2.54-1.65-3.25A6.75 6.75 0 0 0 6.35.09zm0 .03C6.91.15 7.44.2 7.9.31a5.82 5.82 0 0 1 1.6.66 3.65 3.65 0 0 1 1.24 1.36c.14.27.25.57.32.88a4.61 4.61 0 0 1-.14 2.53c-.15.52-.36 1.04-.58 1.52-.44.97-.95 1.8-1.18 2.17a15.2 15.2 0 0 1-1.65 2.15 4.9 4.9 0 0 1-.92.78.96.96 0 0 1-.24.1.96.96 0 0 1-.24-.1 4.76 4.76 0 0 1-.92-.78 14.41 14.41 0 0 1-1.65-2.15 19.2 19.2 0 0 1-1.18-2.17c-.22-.48-.43-1-.58-1.52a4.6 4.6 0 0 1-.14-2.52 3.73 3.73 0 0 1 .84-1.64 3.65 3.65 0 0 1 1.45-1A6.83 6.83 0 0 1 6.35.13z" opacity=".2"/></svg>

<?xml version="1.0" encoding="UTF-8" standalone="no"?>
<svg
   xmlns:dc="http://purl.org/dc/elements/1.1/"
   xmlns:cc="http://creativecommons.org/ns#"
   xmlns:rdf="http://www.w3.org/1999/02/22-rdf-syntax-ns#"
   xmlns:svg="http://www.w3.org/2000/svg"
   xmlns="http://www.w3.org/2000/svg"
   xmlns:xlink="http://www.w3.org/1999/xlink"
   xmlns:sodipodi="http://sodipodi.sourceforge.net/DTD/sodipodi-0.dtd"
   xmlns:inkscape="http://www.inkscape.org/namespaces/inkscape"
   width="48"
   height="48"
   viewBox="0 0 12.7 12.7"
   version="1.1"
   id="svg55"
   sodipodi:docname="doublecmd.svg"
   inkscape:version="0.92.4 (5da689c313, 2019-01-14)">
  <sodipodi:namedview
     pagecolor="#ffffff"
     bordercolor="#666666"
     borderopacity="1"
     objecttolerance="10"
     gridtolerance="10"
     guidetolerance="10"
     inkscape:pageopacity="0"
     inkscape:pageshadow="2"
     inkscape:window-width="1112"
     inkscape:window-height="480"
     id="namedview57"
     showgrid="false"
     inkscape:zoom="4.9166667"
     inkscape:cx="2.1355932"
     inkscape:cy="24"
     inkscape:window-x="0"
     inkscape:window-y="25"
     inkscape:window-maximized="0"
     inkscape:current-layer="svg55" />
  <metadata
     id="metadata2">
    <rdf:RDF>
      <cc:Work>
        <dc:format>image/svg+xml</dc:format>
        <dc:type
           rdf:resource="http://purl.org/dc/dcmitype/StillImage" />
        <dc:title></dc:title>
      </cc:Work>
    </rdf:RDF>
  </metadata>
  <defs
     id="defs43">
    <linearGradient
       id="d">
      <stop
         offset="0"
         stop-color="#ff7f2a"
         id="stop4" />
      <stop
         offset=".24"
         stop-color="#ffb380"
         id="stop6" />
      <stop
         offset=".5"
         stop-color="#c87137"
         id="stop8" />
      <stop
         offset=".75"
         stop-color="#e9c6af"
         id="stop10" />
      <stop
         offset="1"
         stop-color="#f95"
         id="stop12" />
    </linearGradient>
    <linearGradient
       id="c">
      <stop
         offset="0"
         id="stop15" />
      <stop
         offset="1"
         stop-opacity="0"
         id="stop17" />
    </linearGradient>
    <linearGradient
       id="a">
      <stop
         offset="0"
         id="stop20" />
      <stop
         offset="1"
         stop-opacity="0"
         id="stop22" />
    </linearGradient>
    <linearGradient
       id="b">
      <stop
         offset="0"
         stop-color="#515151"
         id="stop25" />
      <stop
         offset=".2"
         stop-color="#2b2b2b"
         id="stop27" />
      <stop
         offset=".53"
         stop-color="#1b1b1b"
         id="stop29" />
      <stop
         offset="1"
         id="stop31" />
    </linearGradient>
    <linearGradient
       xlink:href="#d"
       id="f"
       x1="6.28"
       y1="-.3"
       x2="10.25"
       y2="11"
       gradientUnits="userSpaceOnUse" />
    <radialGradient
       xlink:href="#e"
       id="g"
       cx="30.84"
       cy="30.27"
       fx="30.84"
       fy="30.27"
       r="20.2"
       gradientTransform="matrix(0.42514,-0.01963,0.02224,0.48152,-5.62,-5.68)"
       gradientUnits="userSpaceOnUse" />
    <linearGradient
       id="e">
      <stop
         offset="0"
         stop-color="#ffb380"
         id="stop36" />
      <stop
         stop-color="#ff7f2a"
         offset=".59"
         id="stop38" />
      <stop
         offset="1"
         stop-color="#ffb380"
         id="stop40" />
    </linearGradient>
  </defs>
  <path
     d="M 6.35,0.1 C 4.81,0.1 3.57,0.39 2.66,0.97 A 3.67,3.67 0 0 0 1,4.22 c 0,1.91 1.54,4.47 2.01,5.2 0.54,0.85 1.13,1.61 1.65,2.16 0.68,0.7 1.21,1.03 1.69,1.03 0.48,0 1.01,-0.33 1.69,-1.03 A 15.2,15.2 0 0 0 9.69,9.43 c 0.47,-0.74 2,-3.3 2,-5.21 0,-1.42 -0.57,-2.54 -1.65,-3.25 A 6.75,6.75 0 0 0 6.35,0.09 Z"
     id="path45"
     style="fill:url(#f)"
     inkscape:connector-curvature="0" />
  <path
     d="M 6.35,0.1 C 4.81,0.1 3.57,0.38 2.66,0.96 A 3.67,3.67 0 0 0 1.01,4.21 c 0,1.91 1.53,4.47 2,5.2 a 14.41,14.41 0 0 0 1.65,2.16 c 0.68,0.7 1.21,1.03 1.69,1.03 0.48,0 1.01,-0.33 1.69,-1.03 0.52,-0.55 1.11,-1.31 1.65,-2.16 0.47,-0.73 2,-3.29 2,-5.2 0,-1.42 -0.57,-2.54 -1.65,-3.25 A 6.76,6.76 0 0 0 6.35,0.1 Z"
     id="path47"
     style="fill:url(#g)"
     inkscape:connector-curvature="0" />
  <path
     d="M 11.1,2.08 10.63,2.09 C 8.33,2.15 6.47,3.87 6.47,6.06 A 3.96,3.96 0 0 0 9.4,9.8 C 9.5,9.66 9.6,9.57 9.69,9.42 9.77,9.3 9.95,8.92 10.08,8.71 8.93,8.4 7.7,7.39 7.7,6.06 7.7,4.5 8.98,3.29 10.62,3.29 h 0.9 L 11.58,3.26 V 3.2 A 3.72,3.72 0 0 0 11.26,2.32 C 11.22,2.22 11.15,2.16 11.1,2.07 Z M 1.6,2.1 C 1.55,2.18 1.48,2.25 1.44,2.34 1.3,2.61 1.19,2.9 1.12,3.22 V 3.26 C 1.14,3.27 1.15,3.3 1.19,3.3 h 0.9 C 3.7,3.29 5,4.49 5,6.06 5,7.4 3.78,8.44 2.64,8.74 L 3.01,9.42 A 14.41,14.41 0 0 0 3.29,9.82 3.97,3.97 0 0 0 6.23,6.06 C 6.23,3.87 4.37,2.09 2.07,2.09 H 1.6 Z"
     id="path49"
     inkscape:connector-curvature="0"
     style="fill:#1a1a1a" />
  <path
     d="m 10.98,1.82 h -0.5 A 4.03,4.03 0 0 0 6.47,5.8 c 0,1.87 1.3,3.42 3.06,3.84 L 9.69,9.44 C 9.79,9.28 10.07,8.84 10.24,8.54 9.06,8.37 7.66,7.24 7.66,5.8 a 2.76,2.76 0 0 1 2.82,-2.78 h 0.86 c 0.08,0 0.15,-0.06 0.2,-0.1 C 11.47,2.72 11.36,2.52 11.27,2.34 11.17,2.15 11.11,1.98 10.98,1.82 Z m -9.23,0 A 3.67,3.67 0 0 0 1.27,2.65 l -0.1,0.27 c 0.05,0.05 0.09,0.1 0.2,0.1 h 0.86 c 1.58,0 2.82,1.21 2.82,2.78 0,1.45 -1.4,2.61 -2.58,2.78 0.16,0.29 0.44,0.7 0.54,0.85 L 3.17,9.64 A 3.97,3.97 0 0 0 6.24,5.8 4,4 0 0 0 2.23,1.83 Z"
     id="path51"
     inkscape:connector-curvature="0"
     style="fill:#cccccc" />
  <path
     d="M 6.35,0.1 C 4.81,0.1 3.57,0.39 2.66,0.97 A 3.67,3.67 0 0 0 1,4.22 c 0,1.91 1.54,4.47 2.01,5.2 0.54,0.85 1.13,1.61 1.65,2.16 0.68,0.7 1.21,1.03 1.69,1.03 0.48,0 1.01,-0.33 1.69,-1.03 A 15.2,15.2 0 0 0 9.69,9.43 c 0.47,-0.74 2,-3.3 2,-5.21 0,-1.42 -0.57,-2.54 -1.65,-3.25 A 6.75,6.75 0 0 0 6.35,0.09 Z m 0,0.03 C 6.91,0.15 7.44,0.2 7.9,0.31 a 5.82,5.82 0 0 1 1.6,0.66 3.65,3.65 0 0 1 1.24,1.36 c 0.14,0.27 0.25,0.57 0.32,0.88 A 4.61,4.61 0 0 1 10.92,5.74 C 10.77,6.26 10.56,6.78 10.34,7.26 9.9,8.23 9.39,9.06 9.16,9.43 A 15.2,15.2 0 0 1 7.51,11.58 4.9,4.9 0 0 1 6.59,12.36 0.96,0.96 0 0 1 6.35,12.46 0.96,0.96 0 0 1 6.11,12.36 4.76,4.76 0 0 1 5.19,11.58 14.41,14.41 0 0 1 3.54,9.43 19.2,19.2 0 0 1 2.36,7.26 C 2.14,6.78 1.93,6.26 1.78,5.74 A 4.6,4.6 0 0 1 1.64,3.22 3.73,3.73 0 0 1 2.48,1.58 3.65,3.65 0 0 1 3.93,0.58 6.83,6.83 0 0 1 6.35,0.13 Z"
     id="path53"
     inkscape:connector-curvature="0"
     style="opacity:0.2" />
</svg>
